X:101
T:Cock Robin's Testament
T:chorus words of this wanted
Z:Jack Campin - http://www.campin.me.uk
S:Blaikie MS (NLS MS.1578) p30, Blaikie #95
M:2/4
L:1/8
V:1 midi program 1 74
V:2 midi program 1 46 bass middle = d transpose -24
Q:1/4=100
K:G
[V:1] D|DG``GG|G2 GG|Gc````cc|c3  c|
[V:2] z|G2  g2|g2 g2|e2    c2|c2 c2|
%
[V:1]   e>e`dd|cc`BB|A/B/c dB|A3  ||
[V:2]   c'2 b2|a2 g2|f2    g2|d3  ||
%
[V:1] z|GB/c/ d/c/B/A/|G2 z2   |G/A/B/A/ G2      |G/A/B/A/ G/A/B|
[V:2] z|G2    g2      |G2 z2   |G2       g2      |G2       g2   |
%
[V:1]   A>B   A/G/F/E/|DD DB/c/|d>e      d/c/B/A/|G2       z   |]
[V:2]   f2    a2      |d2 d2   |g2       d2      |G2       z   |]
W:Transcription (c) Jack Campin 2009, no mirroring or republication without permission

